packages/core/src/svgs/tokens/branded/AUTO.svg

<svg width="24" height="24" viewBox="0 0 24 24" fill="none" xmlns="http://www.w3.org/2000/svg">
<path d="M6.14429 16.4047L9.50358 14.3002L15.4769 17.8528L12.1323 20.0019L6.14429 16.4047Z" fill="#E9595C"/>
<path d="M11.0747 4.62973L5.28833 8.13747V14.9087L11.0752 11.541L11.0747 4.62973Z" fill="#109E92"/>
<path d="M20.422 15.2671L16.7374 12.9617V10.981L18.3165 11.822V8.19012L13.0528 4.76818V12.5253L11.4816 13.4228L18.9508 17.8927L12 22L3.57812 17.0221V7.06684L12 2L20.422 7.06684V15.2671ZM5.6836 8.19012V14.6677L10.9457 11.4673V4.89978L5.6836 8.19012ZM9.53769 14.5339L6.42895 16.4531L12 19.745L15.1462 17.8848L9.53769 14.5339Z" fill="black"/>
</svg>

<svg xmlns="http://www.w3.org/2000/svg" width="24" height="24" fill="none" viewBox="0 0 24 24">
    <path fill="#E9595C" d="m6.144 16.405 3.36-2.105 5.973 3.553-3.345 2.149z"/>
    <path fill="#109E92" d="M11.075 4.63 5.288 8.137v6.772l5.787-3.368z"/>
    <path fill="#000" d="m20.422 15.267-3.685-2.305V10.98l1.58.841V8.19l-5.264-3.422v7.757l-1.571.898 7.469 4.47L12 22l-8.422-4.978V7.067L12 2l8.422 5.067zM5.684 8.19v6.478l5.262-3.2V4.9zm3.854 6.344-3.109 1.92L12 19.744l3.146-1.86z"/>
</svg>
